X:497
T: Lian yihetuan
N: C1916
O: China, Hebei Yutian
S: IV, 33]
R: Xiaodiao]
M: 2/4
L: 1/16
K: F
z2c2A2c2 | c2A2f4 | z2c2A2c2 | A3GF2D2
z2c2A2AG | F3DF4 | F3DF2F2 | F3DC4
D2A,CD4 | C3A,C2C2 | G4D4
D2A,CD4 | D3A,C4 | F2DFD2D2 | A,2CA,F4
F2DFD2D2 | A2f2d2d2 | z2c2A2c2 | A3AG2F2 | F3DF2FG | F3DC4

